X:1
T:Title
%%score 1 2 3 4
L:1/8
M:3/2
K:C
V:1 treble nm="Part_1"
V:2 treble nm="Part_2"
V:3 treble-8 nm="Part_3"
V:4 treble nm="Part_4"
V:1
 A12 | G8 F4 | E12 | D6 E2 F2 G2 | E4 C4 D4 | A,4 z4 z4 | A8 A4 | G4 c4 B4 | A2 G2 F4 E4 | %9
 D4 z4 C4 | B,4 A,4 B,2 C2 | D6 C4 B,2 | D4 A8 | G4 A4 D4 | z4 F4 E4 | D4 z2 D4 C2 | %16
 B,4 A,4 z2 A2 | B2 c2 A2 A2 G2 F2 | A8 A4 | D4 E4 C4 | D4 C4 B,4 | A,12 | A8 A4 | D8 A4 | %24
 A4 G4 F4 | E12 | z12 | A8 A4 | c4 B4 A4 | G8 F4 | G12 | A4 G2 F4 E2 | D4 C2 D4 B,2 | %33
 A,4 D2 C2 D2 B,2 | ^C4 z4 z4 | D4 D2 D4 E2 | F6 F2 F2 F2 | E4 z2 A4 A2 | G2 F2 E2 D4 C2 | D8 z4 | %40
 E8 E4 | G8 G4 | A4 A4 A4 | G2 F4 E2 D4 | C2 A,2 B,2 C2 A,4 | z2 E4 F2 E4 | D4 G2 F2 E4 | %47
 D6 C4 B,2 | D4 z4 D4 | G6 F2 G2 E2 | F4 G2 F2 G2 A2 | _B2 A2 F2 G2 F2 E2 | G8 z4 | D8 E4 | %54
 F4 E4 D4 | z2 A,2 B,4 C4 | D4 z2 E2 C4 | B,4 A,4 z2 C2 | D4 E4 F4 | E2 D4 C2 A,4 | %60
 z2 C2 D2 C2 C2 B,2 | D8 D4 | A,8 A,4 | D4 C4 B,4 | A,12 | z12 | F8 F4 | E4 A4 G4 | A8 B4 | A12 | %70
 D4 E2 F4 E2 | C4 A,2 B,4 C2 | D4 F2 E2 F2 D2 | E4 z4 z4 | G4 A2 G4 F2 | E6 G2 F2 E2 | %76
 D4 z2 D4 D2 | E2 F2 G2 A4 G2 | A8 z4 | D8 D4 | G8 A4 | B4 c4 B4 | A2 G4 F2 E4 | A2 G2 F2 E2 D4 | %84
 z2 G4 G2 G4 | E4 A2 G2 F4 | E6 D4 C2 | E4 z4 E4 | D6 C2 D2 E2 | F4 G2 F2 E2 D2 | %90
 C2 E2 D2 C2 C2 B,2 | D8 z4 | G8 G4 | A4 G4 E4 | z2 C2 D4 D4 | C4 z2 D2 A,4 | _B,4 A,4 z2 D2 | %97
 D4 C4 D4 | A,2 C4 D2 E4 | z2 A2 G2 E2 F2 D2 | C12 | D12 |] %102
V:2
 z12 | z12 | z12 | A12 | G8 F4 | E12 | D6 E2 F2 G2 | E4 C4 D4 | A,4 z4 z4 | A8 A4 | G4 c4 B4 | %11
 A2 G2 F4 E4 | D4 z4 C4 | B,4 A,4 B,2 C2 | D6 C4 B,2 | D4 A8 | G4 A4 D4 | z4 F4 E4 | D4 z2 D4 C2 | %19
 B,4 A,4 z2 A2 | B2 c2 A2 A2 G2 F2 | A12 | D12 | A8 A4 | D8 A4 | G4 B2 A2 G2 F2 | E12 | D8 D4 | %28
 E8 F4 | E4 D4 C4 | D4 z4 z4 | F2 E4 D2 C4 | D2 E4 F2 G4 | A2 G2 F2 E2 F2 D2 | E4 E2 E4 F2 | %35
 G6 G2 A2 B2 | c4 z4 B2 A2- | A2 G2 F2 D2 E2 F2 | D4 G4 F4 | G12 | C12 | z12 | E8 E4 | %43
 E4 A2 G4 F2 | E4 D2 E2 F2 G2 | A4 z4 G4 | F4 _B4 A4 | G4 F8 | G12 | D12 | C8 D4 | D4 C8 | D12 | %53
 A8 G4 | A8 B4 | c4 B4 A4 | z2 B2 A4 F4 | E4 z2 D2 E4 | A,4 B,4 z2 C2 | B,4 A,4 A4 | G4 z2 A4 G2 | %61
 A12 | D8 D4 | A,8 D4 | E4 E2 D2 C2 B,2 | A,12 | D8 D4 | C8 D4 | E4 F4 G4 | E4 z4 z4 | %70
 A2 G4 A2 B4 | c2 A4 G2 E4 | A2 B2 A2 G2 A2 F2 | G4 A2 G4 F2 | E6 D2 E2 F2 | G4 z4 A2 G2- | %76
 G2 A2 B2 A2 G2 F2 | E4 E4 D4 | E12 | F12 | z12 | G8 G4 | F4 E2 D4 C2 | D4 A2 G2 F2 E2 | D4 z4 D4 | %85
 A4 c4 B4 | A4 G8 | A12 | B12 | A8 A4 | G4 F8 | G12 | C8 C4 | E8 G4 | A4 _B4 G4 | z2 A2 _B4 A4 | %96
 D4 z2 G2 A4 | F4 E4 z2 G2 | F4 G4 C4 | D4 z2 E4 F2 | G12 | A12 |] %102
V:3
 z12 | z12 | z12 | z12 | z12 | z12 | z12 | z12 | z12 | z12 | z12 | z12 | z12 | z12 | z12 | z12 | %16
 z12 | z12 | z12 | z12 | z12 | z12 | D12- | D12 | D12 | z12 | A12 | z12 | A8 A4 | c8 A4 | G12 | %31
 z12 | z12 | z12 | A12 | G12 | F12 | z4 A8 | B8 A4 | G12 | z4 A8 | B12 | A12 | z12 | z12 | A8 c4 | %46
 d8 c4 | B4 A8 | G12 | z4 _B8 | A8 G4 | z4 A8 | G12 | z12 | F8 G4 | A4 z2 G2 A4 | G4 A4 z2 A2 | %57
 G4 F4 E4 | z2 F2 G4 F4 | G4 z2 A2 D4 | E4 F4 E4 | D12- | D12 | D12 | z12 | D12 | z12 | A8 B4 | %68
 A8 G4 | A12 | z12 | z12 | z12 | c12 | c12 | c12 | z4 B8 | c8 B4 | A12 | z4 B8 | c12 | G12 | z12 | %83
 z12 | G8 G4 | A8 B4 | c4 B8 | A12 | z4 G8 | F8 F4 | z4 A8 | G12 | z12 | c8 c4 | A4 z2 G2 _B4 | %95
 A4 G4 z2 F2 | G4 F4 D4 | z2 F2 A4 G4 | A4 z2 G2 E4 | F4 G4 F4 | E12 | D12 |] %102
V:4
 z12 | z12 | z12 | z12 | z12 | z12 | z12 | z12 | z12 | z12 | z12 | z12 | z12 | z12 | z12 | z12 | %16
 z12 | z12 | z12 | z12 | z12 | z12 | A,12- | A,12 | z12 | E,8 E,4 | C8 A,4 | D,12 | z12 | %29
 C,4 D,2 E,2 F,4 | G,4 D2 C2 D2 B,2 | A,8 A,4 | _B,4 A,4 G,4 | D,12 | z4 A,8 | B,12 | z4 C8 | %37
 C8 C4 | G,8 F,4 | G,4 _B,8 | A,8 C4 | D12 | C8 C4 | E4 C4 D4 | A,8 D,4 | z12 | D,8 E,4 | G,4 F,8 | %48
 z4 _B,8 | G,8 G,4 | z4 F,4 G,4 | D,4 F,8 | G,8 G,4 | F,8 E,4 | D,4 z4 D4 | C4 D4 z2 A,2 | %56
 B,4 C4 A,4 | z2 E,2 D,4 C,4 | D,4 z2 G,2 D,4 | E,4 F,4 z2 F,2 | G,4 A,4 G,4 | A,12- | A,12 | z12 | %64
 C8 E4 | D8 A,4 | D,12 | z12 | A,4 B,2 C2 D4 | C4 D2 ^C2 C2 B,2 | D8 D4 | A,4 D,4 E,4 | D,12 | %73
 z4 C,8 | C,12 | z4 C,8 | G,8 G,4 | A,8 G,4 | A,4 C8 | B,8 D4 | E12 | D8 D4 | D4 G,4 A,4 | %83
 D,8 D,4 | z12 | C8 D4 | A,4 G,8 | z4 C8 | D12 | z4 A,4 D,4 | E,4 F,8 | G,8 D4 | E8 C4 | %93
 C,4 z4 E,4 | F,4 G,4 z2 G,2 | A,4 _B,4 C4 | z2 _B,2 C4 D4 | _B,4 z2 C2 B,4 | A,4 _B,4 z2 G,2 | %99
 A,4 E,4 D,4 | G,12 | A,12 |] %102

